X: 1
T: Where Would The World Be Without Women
M: 4/4
L: 1/8
R: barndance / German
K: Dmaj
|: FG |
ABAF DEED | B,2 B,2 A,2 DE | FEFA BAFD | E2 ED E2 FG |
ABAF DEED | B,2 B,2 A,2 DE | FEFD EDEF | D2 DD D2 :|
|: FA |
B2 BA BcdB | A2 AB AFDF | AFAF BAFD | E2 ED E2 FG |
ABAF DEED | B,2 B,2 A,2 DE | FEFD EDEF | D2 DD D2 :|
